ATB_project/img/object/lables/kaspi.svg

<svg width="180" height="42" viewBox="0 0 180 42" fill="none" xmlns="http://www.w3.org/2000/svg">
<g clip-path="url(#clip0_135_982)">
<path fill-rule="evenodd" clip-rule="evenodd" d="M21.532 22.477C25.212 23.043 25.712 25.2156 26.008 27.2367L26.056 27.5795L26.088 27.8147L26.268 29.0027C26.62 31.2749 27.352 35.9868 27.352 38.4464C27.352 39.0603 27.296 39.5347 27.2 39.7938C27.036 40.1925 26.552 40.5752 25.888 40.8981C24.28 41.2927 22.6 41.504 20.868 41.504C20.684 41.504 20.504 41.496 20.324 41.488C19.624 41.2887 19.1 40.9579 18.82 40.5074C17.98 39.144 17.928 36.1024 17.912 32.5545V32.1439L17.904 31.0796C17.876 27.3204 17.852 24.0795 19.224 22.9155C19.756 22.469 20.508 22.3215 21.532 22.4809V22.477ZM13.504 30.661C14.3 30.6172 14.816 34.5278 14.92 37.4937C14.992 39.5586 14.776 40.4077 14.428 40.7147C14.036 40.5831 13.648 40.4436 13.268 40.2881C13.012 39.8297 12.82 39.1042 12.696 38.1554C12.32 35.1776 12.648 30.7128 13.508 30.661H13.504ZM33.508 36.5051C33.46 36.7761 33.388 36.9874 33.3 37.1628C32.616 37.7089 31.9 38.2112 31.152 38.6617C30.912 38.7016 30.7 38.6736 30.596 38.4982C29.6 36.7562 29.228 31.2948 30.192 30.8165C31.448 30.2106 33.696 35.5603 33.508 36.5051ZM20.572 0.5C31.776 0.5 40.884 9.34181 41.136 20.3442V20.7229L41.14 20.8983C41.12 25.8694 39.284 30.4139 36.26 33.9338C36.152 33.878 35.952 33.6986 35.588 33.1605C35.212 32.6183 31.98 27.6553 31.98 21.9707C31.98 20.8545 33.592 19.1124 35.02 17.5817C36.088 16.4296 37.1 15.3453 37.472 14.4922C37.948 13.392 37.616 12.6226 37.088 12.3595C36.612 12.1283 35.9 12.2957 35.4 13.1847C34.58 14.6198 34.316 14.8869 33.116 15.8476C31.936 16.8083 30.064 17.773 30.064 16.5213C30.064 15.8476 31.108 14.3208 31.624 13.2485C32.152 12.1642 31.584 11.3828 30.496 11.3828C28.36 11.3828 26.944 14.0936 26.944 15.0344C26.944 15.9752 27.4 16.1067 27.4 17.199C27.4 18.2912 25.056 19.7263 22.852 19.7263C20.648 19.7263 19.496 19.2958 18.984 18.0919L18.92 17.9205L18.772 17.486C18.248 15.9592 17.872 14.855 17.22 13.6989C16.872 13.089 16.336 12.6625 15.876 12.2917C15.272 11.8213 14.956 11.3908 14.892 11.0679C14.832 10.749 14.8 10.1471 15.836 8.7598C16.868 7.38051 17.012 6.34006 16.496 5.8019C16.308 5.61055 15.988 5.48697 15.58 5.48697C14.856 5.48697 13.848 5.86966 12.808 6.92207C11.192 8.57244 12.108 10.1351 12.108 10.8247C12.108 11.5144 11.812 11.9011 10.844 12.8339C9.868 13.7707 9.532 14.5759 9.42 17.8129C9.376 19.4792 9.084 20.4399 8.82 21.289C8.592 22.0345 8.38 22.7361 8.372 23.7486C8.352 24.8688 8.54 25.5943 8.76 26.4275C8.976 27.1968 9.204 28.0818 9.348 29.5608C9.58 31.849 9.5 33.7824 9.076 35.7596L8.964 36.2539L8.936 36.3974C8.848 36.7442 8.748 37.1668 8.608 37.3262C3.396 33.6349 0 27.6154 0 20.8106C0 9.59694 9.208 0.5 20.572 0.5Z" fill="#F14635"/>
<path d="M119.708 14.556C121.744 14.556 123.324 15.2736 124.456 16.7127C125.584 18.1478 126.152 20.125 126.152 22.6364V22.8716C126.152 25.3272 125.576 27.2846 124.42 28.7515C123.264 30.2185 121.704 30.952 119.74 30.952C118.224 30.952 116.976 30.4218 116 29.3615V37.3382H110.856V14.855H115.664L115.816 16.314C116.804 15.146 118.1 14.56 119.708 14.56V14.556ZM83.836 14.556C85.944 14.556 87.608 15.0463 88.828 16.031C90.048 17.0156 90.676 18.363 90.704 20.0772V27.0733C90.724 28.5243 90.96 29.6365 91.408 30.4059V30.6531H86.264C86.08 30.3302 85.92 29.8598 85.776 29.2379C84.828 30.378 83.508 30.948 81.808 30.948C80.252 30.948 78.928 30.4976 77.84 29.5967C76.752 28.6957 76.208 27.5636 76.208 26.2003C76.208 24.4861 76.868 23.1905 78.192 22.3135C79.516 21.4365 81.44 20.998 83.96 20.998H85.548V20.1649C85.548 18.7138 84.892 17.9883 83.58 17.9883C82.36 17.9883 81.748 18.5623 81.748 19.7104H76.604C76.604 18.1796 77.284 16.9399 78.64 15.9831C80 15.0304 81.732 14.552 83.836 14.552V14.556ZM100.58 14.556C102.756 14.556 104.508 15.0304 105.832 15.9712C107.156 16.916 107.816 18.1597 107.816 19.6985H102.656C102.656 18.4308 101.96 17.8009 100.564 17.8009C100.024 17.8009 99.572 17.9444 99.204 18.2315C98.836 18.5185 98.656 18.8773 98.656 19.3038C98.656 19.7304 98.88 20.0971 99.328 20.3722C99.776 20.6432 100.492 20.8705 101.472 21.0459C102.452 21.2213 103.316 21.4325 104.06 21.6757C106.544 22.4929 107.784 23.9599 107.784 26.0727C107.784 27.5158 107.116 28.6878 105.776 29.5927C104.436 30.4976 102.704 30.952 100.58 30.952C99.164 30.952 97.904 30.7089 96.796 30.2225C95.688 29.7362 94.82 29.0744 94.2 28.2373C93.58 27.4002 93.268 26.5192 93.268 25.5943H98.076C98.096 26.3238 98.352 26.858 98.84 27.1929C99.328 27.5277 99.956 27.6952 100.716 27.6952C101.42 27.6952 101.944 27.5596 102.296 27.2846C102.648 27.0135 102.824 26.6547 102.824 26.2162C102.824 25.7777 102.596 25.4628 102.136 25.2076C101.68 24.9525 100.808 24.6894 99.524 24.4183C98.24 24.1473 97.184 23.7885 96.348 23.346C95.512 22.9035 94.876 22.3654 94.44 21.7315C94.004 21.0977 93.784 20.3722 93.784 19.5549C93.784 18.1039 94.408 16.908 95.66 15.9672C96.912 15.0264 98.552 14.556 100.576 14.556H100.58ZM61.932 8.18976V18.7656L69.212 8.18976H75.836L67.7 18.7935L75.212 30.657H68.86L64.128 22.7401L61.928 25.0482V30.657H56.572V8.18976H61.928H61.932ZM134.468 14.851V30.657H129.308V14.851H134.468ZM179.832 14.851V17.5099L172.476 26.858H180V30.657H165.972V27.9104L173.3 18.6461H164.668L168.104 14.847H179.832V14.851ZM141.364 25.5585C142.772 25.5585 143.912 26.6547 143.912 28.0061C143.912 29.3575 142.772 30.4537 141.364 30.4537C139.956 30.4537 138.816 29.3575 138.816 28.0061C138.816 26.6547 139.956 25.5585 141.364 25.5585ZM153.312 8.18976V19.9974L153.832 19.3477L157.72 14.7753H163.904L158.104 21.2133L164.288 30.4298H158.38L154.768 24.5977L153.312 25.973V30.4298H148.152V8.18976H153.312ZM85.548 23.629H84.052C82.26 23.629 81.364 24.3984 81.364 25.9372C81.364 26.3836 81.52 26.7464 81.836 27.0254C82.152 27.3045 82.552 27.44 83.04 27.44C83.68 27.44 84.212 27.3085 84.636 27.0454C85.06 26.7823 85.36 26.4873 85.544 26.1524V23.6251L85.548 23.629ZM118.44 18.355C117.22 18.355 116.404 18.7736 115.996 19.6108V25.8335C116.444 26.7105 117.268 27.149 118.468 27.149C120.108 27.149 120.952 25.7936 121 23.0869V22.5607C121 19.7543 120.144 18.355 118.436 18.355H118.44ZM131.96 8.18976C133.368 8.18976 134.508 9.33784 134.508 10.753C134.508 12.1682 133.368 13.3163 131.96 13.3163C130.552 13.3163 129.412 12.1682 129.412 10.753C129.412 9.33784 130.552 8.18976 131.96 8.18976Z" fill="black"/>
</g>
<defs>
<clipPath id="clip0_135_982">
<rect width="180" height="41" fill="white" transform="translate(0 0.5)"/>
</clipPath>
</defs>
</svg>

<svg width="180" height="42" viewBox="0 0 180 42" fill="none" xmlns="http://www.w3.org/2000/svg"><g clip-path="url(#clip0_135_982)"><path fill-rule="evenodd" clip-rule="evenodd" d="M21.532 22.477c3.68.566 4.18 2.739 4.476 4.76l.048.343.032.235.18 1.188c.352 2.272 1.084 6.984 1.084 9.443 0 .614-.056 1.089-.152 1.348-.164.399-.648.781-1.312 1.104a21.033 21.033 0 01-5.02.606c-.184 0-.364-.008-.544-.016-.7-.2-1.224-.53-1.504-.98-.84-1.364-.892-4.406-.908-7.954v-.41l-.008-1.064c-.028-3.76-.052-7 1.32-8.164.532-.447 1.284-.595 2.308-.435v-.004zm-8.028 8.184c.796-.044 1.312 3.867 1.416 6.833.072 2.065-.144 2.914-.492 3.22-.392-.13-.78-.27-1.16-.426-.256-.458-.448-1.184-.572-2.133-.376-2.977-.048-7.442.812-7.494h-.004zm20.004 5.844c-.048.271-.12.482-.208.658a19.99 19.99 0 01-2.148 1.499c-.24.04-.452.012-.556-.164-.996-1.742-1.368-7.203-.404-7.681 1.256-.606 3.504 4.743 3.316 5.688zM20.572.5c11.204 0 20.312 8.842 20.564 19.844v.379l.004.175c-.02 4.971-1.856 9.516-4.88 13.036-.108-.056-.308-.235-.672-.773-.376-.543-3.608-5.506-3.608-11.19 0-1.116 1.612-2.859 3.04-4.39 1.068-1.151 2.08-2.236 2.452-3.089.476-1.1.144-1.87-.384-2.133-.476-.23-1.188-.063-1.688.826-.82 1.435-1.084 1.702-2.284 2.663-1.18.96-3.052 1.925-3.052.673 0-.673 1.044-2.2 1.56-3.273.528-1.084-.04-1.865-1.128-1.865-2.136 0-3.552 2.71-3.552 3.651 0 .941.456 1.073.456 2.165s-2.344 2.527-4.548 2.527-3.356-.43-3.868-1.634l-.064-.171-.148-.435c-.524-1.527-.9-2.631-1.552-3.787-.348-.61-.884-1.037-1.344-1.407-.604-.47-.92-.901-.984-1.224-.06-.319-.092-.92.944-2.308 1.032-1.38 1.176-2.42.66-2.958-.188-.191-.508-.315-.916-.315-.724 0-1.732.383-2.772 1.435-1.616 1.65-.7 3.213-.7 3.903s-.296 1.076-1.264 2.009c-.976.937-1.312 1.742-1.424 4.979-.044 1.666-.336 2.627-.6 3.476-.228.745-.44 1.447-.448 2.46-.02 1.12.168 1.845.388 2.678.216.77.444 1.655.588 3.134.232 2.288.152 4.221-.272 6.199l-.112.494-.028.143c-.088.347-.188.77-.328.93C3.396 33.634 0 27.614 0 20.81 0 9.597 9.208.5 20.572.5z" fill="#F14635"/><path d="M119.708 14.556c2.036 0 3.616.718 4.748 2.157 1.128 1.435 1.696 3.412 1.696 5.923v.236c0 2.455-.576 4.413-1.732 5.88-1.156 1.466-2.716 2.2-4.68 2.2-1.516 0-2.764-.53-3.74-1.59v7.976h-5.144V14.855h4.808l.152 1.459c.988-1.168 2.284-1.754 3.892-1.754v-.004zm-35.872 0c2.108 0 3.772.49 4.992 1.475 1.22.985 1.848 2.332 1.876 4.046v6.996c.02 1.451.256 2.564.704 3.333v.247h-5.144c-.184-.323-.344-.793-.488-1.415-.948 1.14-2.268 1.71-3.968 1.71-1.556 0-2.88-.45-3.968-1.351s-1.632-2.033-1.632-3.397c0-1.714.66-3.01 1.984-3.886 1.324-.878 3.248-1.316 5.768-1.316h1.588v-.833c0-1.451-.656-2.177-1.968-2.177-1.22 0-1.832.574-1.832 1.722h-5.144c0-1.53.68-2.77 2.036-3.727 1.36-.953 3.092-1.431 5.196-1.431v.004zm16.744 0c2.176 0 3.928.474 5.252 1.415 1.324.945 1.984 2.189 1.984 3.727h-5.16c0-1.267-.696-1.897-2.092-1.897-.54 0-.992.143-1.36.43-.368.287-.548.646-.548 1.073 0 .426.224.793.672 1.068.448.271 1.164.498 2.144.674.98.175 1.844.387 2.588.63 2.484.817 3.724 2.284 3.724 4.397 0 1.443-.668 2.615-2.008 3.52-1.34.905-3.072 1.359-5.196 1.359-1.416 0-2.676-.243-3.784-.73-1.108-.486-1.976-1.148-2.596-1.985-.62-.837-.932-1.718-.932-2.643h4.808c.02.73.276 1.264.764 1.599.488.335 1.116.502 1.876.502.704 0 1.228-.135 1.58-.41.352-.271.528-.63.528-1.069 0-.438-.228-.753-.688-1.008-.456-.255-1.328-.519-2.612-.79-1.284-.27-2.34-.63-3.176-1.072-.836-.442-1.472-.98-1.908-1.614-.436-.634-.656-1.36-.656-2.177 0-1.451.624-2.647 1.876-3.588 1.252-.94 2.892-1.411 4.916-1.411h.004zM61.932 8.19v10.576l7.28-10.576h6.624L67.7 18.794l7.512 11.863H68.86l-4.732-7.917-2.2 2.308v5.609h-5.356V8.19h5.36zm72.536 6.661v15.806h-5.16V14.851h5.16zm45.364 0v2.659l-7.356 9.348H180v3.799h-14.028V27.91l7.328-9.264h-8.632l3.436-3.799h11.728v.004zm-38.468 10.707c1.408 0 2.548 1.097 2.548 2.448 0 1.352-1.14 2.448-2.548 2.448-1.408 0-2.548-1.096-2.548-2.448 0-1.351 1.14-2.448 2.548-2.448zM153.312 8.19v11.807l.52-.65 3.888-4.572h6.184l-5.8 6.438 6.184 9.217h-5.908l-3.612-5.832-1.456 1.375v4.457h-5.16V8.19h5.16zM85.548 23.629h-1.496c-1.792 0-2.688.77-2.688 2.308 0 .447.156.81.472 1.088.316.28.716.415 1.204.415.64 0 1.172-.132 1.596-.395.424-.263.724-.558.908-.893v-2.527l.004.004zm32.892-5.274c-1.22 0-2.036.419-2.444 1.256v6.223c.448.877 1.272 1.315 2.472 1.315 1.64 0 2.484-1.355 2.532-4.062v-.526c0-2.807-.856-4.206-2.564-4.206h.004zM131.96 8.19a2.555 2.555 0 012.548 2.563 2.555 2.555 0 01-2.548 2.563 2.555 2.555 0 01-2.548-2.563 2.555 2.555 0 012.548-2.563z" fill="#000"/></g><defs><clipPath id="clip0_135_982"><path fill="#fff" transform="translate(0 .5)" d="M0 0h180v41H0z"/></clipPath></defs></svg>
